icon/lg/aws-glue.svg

<?xml version="1.0" encoding="UTF-8"?>
<svg viewBox="0 0 256 256" version="1.1" xmlns="http://www.w3.org/2000/svg" xmlns:xlink="http://www.w3.org/1999/xlink" preserveAspectRatio="xMidYMid" height="1em" width="1em">
  <defs>
    <linearGradient x1="0%" y1="100%" x2="100%" y2="0%" id="linearGradient-1">
      <stop stop-color="#4D27A8" offset="0%"/>
      <stop stop-color="#A166FF" offset="100%"/>
    </linearGradient>
  </defs>
  <g>
    <rect fill="url(#linearGradient-1)" x="0" y="0" width="256" height="256"/>
    <path d="M105.6,73.6 L112,73.6 L112,67.2 L105.6,67.2 L105.6,73.6 Z M99.2,76.8 L99.2,64 C99.2,62.2336 100.6304,60.8 102.4,60.8 L115.2,60.8 C116.9696,60.8 118.4,62.2336 118.4,64 L118.4,76.8 C118.4,78.5664 116.9696,80 115.2,80 L102.4,80 C100.6304,80 99.2,78.5664 99.2,76.8 L99.2,76.8 Z M131.2,54.4 L137.6,54.4 L137.6,48 L131.2,48 L131.2,54.4 Z M124.8,57.6 L124.8,44.8 C124.8,43.0336 126.2304,41.6 128,41.6 L140.8,41.6 C142.5696,41.6 144,43.0336 144,44.8 L144,57.6 C144,59.3664 142.5696,60.8 140.8,60.8 L128,60.8 C126.2304,60.8 124.8,59.3664 124.8,57.6 L124.8,57.6 Z M137.6,86.4 L144,86.4 L144,80 L137.6,80 L137.6,86.4 Z M134.4,73.6 L147.2,73.6 C148.9696,73.6 150.4,75.0336 150.4,76.8 L150.4,89.6 C150.4,91.3664 148.9696,92.8 147.2,92.8 L134.4,92.8 C132.6304,92.8 131.2,91.3664 131.2,89.6 L131.2,76.8 C131.2,75.0336 132.6304,73.6 134.4,73.6 L134.4,73.6 Z M128,107.2 C122.3648,107.2 101.9328,106.96 88.6432,103.6928 L121.1072,155.0912 C121.4272,155.6032 121.6,156.1952 121.6,156.8 L121.6,164.0864 C126.0928,165.3888 130.2432,165.4016 134.4,164.1376 L134.4,156.8 C134.4,156.1952 134.5728,155.6032 134.8928,155.0912 L167.3568,103.6928 C154.0672,106.96 133.6352,107.2 128,107.2 L128,107.2 Z M77.6128,98.2144 C77.104,97.472 76.8,96.672 76.8,95.7984 C76.8,86.6944 106.8288,85.0112 124.7296,84.816 L124.7968,91.216 C102.8064,91.456 89.3696,93.9648 84.6336,95.8336 C89.6576,97.9328 104.4576,100.8 128,100.8 C151.4816,100.8 166.2624,97.9488 171.3248,95.8528 C169.2576,95.0176 164.976,93.7824 156.4128,92.736 L157.1872,86.384 C176.5856,88.752 179.2,92.4704 179.2,95.7984 C179.2,96.672 178.896,97.472 178.3872,98.2144 L140.8,157.728 L140.8,166.4 C140.8,167.7056 140.0064,168.8832 138.7936,169.3696 C135.3024,170.7712 131.7952,171.4688 128.2112,171.4688 C124.6592,171.4688 121.0368,170.7808 117.2928,169.4016 C116.0384,168.9376 115.2,167.7408 115.2,166.4 L115.2,157.728 L77.6128,98.2144 Z M150.1568,190.7744 C150.6528,191.9712 150.3776,193.3472 149.4624,194.2624 L130.2624,213.4624 C129.6384,214.0864 128.8192,214.4 128,214.4 C127.1808,214.4 126.3616,214.0864 125.7376,213.4624 L106.5376,194.2624 C105.6224,193.3472 105.3472,191.9712 105.8432,190.7744 C106.336,189.5808 107.5072,188.8 108.8,188.8 L118.4,188.8 L118.4,179.2 L124.8,179.2 L124.8,192 C124.8,193.7664 123.3696,195.2 121.6,195.2 L116.5248,195.2 L128,206.6752 L139.4752,195.2 L134.4,195.2 C132.6304,195.2 131.2,193.7664 131.2,192 L131.2,179.2 L137.6,179.2 L137.6,188.8 L147.2,188.8 C148.4928,188.8 149.664,189.5808 150.1568,190.7744 L150.1568,190.7744 Z" fill="#FFFFFF"/>
  </g>
</svg>

<svg width="256" height="256" xmlns="http://www.w3.org/2000/svg" preserveAspectRatio="xMidYMid"><defs><linearGradient x1="0%" y1="100%" x2="100%" y2="0%" id="a"><stop stop-color="#4D27A8" offset="0%"/><stop stop-color="#A166FF" offset="100%"/></linearGradient></defs><path fill="url(#a)" d="M0 0h256v256H0z"/><path d="M105.6 73.6h6.4v-6.4h-6.4v6.4Zm-6.4 3.2V64a3.2 3.2 0 0 1 3.2-3.2h12.8a3.2 3.2 0 0 1 3.2 3.2v12.8a3.2 3.2 0 0 1-3.2 3.2h-12.8a3.2 3.2 0 0 1-3.2-3.2Zm32-22.4h6.4V48h-6.4v6.4Zm-6.4 3.2V44.8a3.2 3.2 0 0 1 3.2-3.2h12.8a3.2 3.2 0 0 1 3.2 3.2v12.8a3.2 3.2 0 0 1-3.2 3.2H128a3.2 3.2 0 0 1-3.2-3.2Zm12.8 28.8h6.4V80h-6.4v6.4Zm-3.2-12.8h12.8a3.2 3.2 0 0 1 3.2 3.2v12.8a3.2 3.2 0 0 1-3.2 3.2h-12.8a3.2 3.2 0 0 1-3.2-3.2V76.8a3.2 3.2 0 0 1 3.2-3.2Zm-6.4 33.6c-5.635 0-26.067-.24-39.357-3.507l32.464 51.398c.32.512.493 1.104.493 1.709v7.286c4.493 1.303 8.643 1.316 12.8.052V156.8c0-.605.173-1.197.493-1.709l32.464-51.398c-13.29 3.267-33.722 3.507-39.357 3.507Zm-50.387-8.986c-.509-.742-.813-1.542-.813-2.416 0-9.104 30.029-10.787 47.93-10.982l.067 6.4c-21.99.24-35.427 2.749-40.163 4.618 5.024 2.099 19.824 4.966 43.366 4.966 23.482 0 38.262-2.851 43.325-4.947-2.067-.835-6.349-2.07-14.912-3.117l.774-6.352c19.399 2.368 22.013 6.086 22.013 9.414 0 .874-.304 1.674-.813 2.416L140.8 157.728v8.672a3.2 3.2 0 0 1-2.006 2.97c-3.492 1.401-6.999 2.099-10.583 2.099-3.552 0-7.174-.688-10.918-2.067a3.203 3.203 0 0 1-2.093-3.002v-8.672L77.613 98.214Zm72.544 92.56a3.2 3.2 0 0 1-.695 3.488l-19.2 19.2a3.191 3.191 0 0 1-2.262.938c-.82 0-1.638-.314-2.262-.938l-19.2-19.2a3.2 3.2 0 0 1 2.262-5.462h9.6v-9.6h6.4V192a3.2 3.2 0 0 1-3.2 3.2h-5.075L128 206.675l11.475-11.475H134.4a3.2 3.2 0 0 1-3.2-3.2v-12.8h6.4v9.6h9.6c1.293 0 2.464.78 2.957 1.974Z" fill="#FFF"/></svg>
